X:1
T:Thou Art My Rock
T:George Frederick Root, 1885
T:Thou Art My Rock
T:Public Domain
T:Public Domain
C:George Frederick Root, 1885
Z:Public Domain
%%score ( 1 2 ) ( 3 4 )
L:1/8
M:4/4
K:Bb
V:1 treble 
V:2 treble 
V:3 bass 
V:4 bass 
V:1
 [DF]2 [DG]>[DA] [DB]2 [DA]>[DB] | [Ec]2 [EB]>[EG] [DF]4 | [DF]2 [B,D]>[CE] [DF]2 [DB]>[Dc] | %3
w: 1.~Thou art my rock in the|wide des- ert land,|Shel- tered by Thee here in|
w: 2.~Once I was wand- ’ring ex-|posed to the storm,|Ref- uge there was none to|
w: 3.~Come to the rock so ma-|jes- tic and grand;|Here in its shel- ter a|
 [Dd]2 [=Ec]>[EB] [Fc]4 | [^Fd]2 [Fd]>[Fc] [GB]2 [DG]>[DA] | [DB]2 [DA]>[D^F] G4 | %6
w: safe- ty I stand;|What tho’ the storms and the|temp- ests may beat,|
w: shield me from harm;|Then ’twas I found in the|broad des- ert way|
w: mil- lion may stand;|Each one may feel that his|hope here is sure,|
 [Ge]2 [Ge]>[Gd] [Gc]2 [Gc]>[GB] | [FA]2 [=EA]>[EG] (FCD_E) ||"^Refrain" [DF]2 [DG]>[DA] [DB]4 | %9
w: tho’ the sun pour its fierce|noon- tide heat: * * * *||
w: as my rock and with glad-|ness could say: * * * *||
w: one may say in his safe-|ty se- cure: * * * *||
 [EG]2 [EA]>[EB] [Ec]4 | [Fe]2 [Fd]>[Ec] [DB]2 [FA]>[EG] | [DF]2 [EG]>[EA] [DB]4 |] %12
w: |||
w: |||
w: |||
V:2
 x8 | x8 | x8 | x8 | x8 | x4 G4 | x8 | x4 F4 || x8 | x8 | x8 | x8 |] %12
w: |||||What|||||||
w: |||||Christ|||||||
w: |||||Each|||||||
V:3
 [B,,B,]2 [B,,B,]>[B,,B,] [B,,B,]2 [B,,B,]>[B,,B,] | [B,,G,]2 [B,,G,]>[B,,A,] [B,,B,]4 | %2
w: ~ ~ ~ ~ ~ ~|~ ~ ~ ~|
 [B,,B,]2 [B,,B,]>[B,,B,] [B,,B,]2 B,>[A,B,] | [G,B,]2 [G,B,]>[G,B,] [F,A,]4 | %4
w: ~ ~ ~ ~ ~ ~|~ ~ ~ ~|
 [D,A,]2 [D,A,]>[D,D] [G,D]2 [G,B,]>[G,C] | [D,D]2 [D,C]>[D,C] [E,B,]4 | %6
w: ~ ~ ~ ~ ~ ~|~ ~ ~ ~|
 [C,C]2 [C,C]>[D,=B,] [E,C]2 [=E,C]>[E,C] | [F,C]2 [C,C]>[C,B,] ([F,A,][E,C][D,B,][C,A,]) || %8
w: ~ ~ ~ ~ ~ ~|~ ~ ~ Shel- * * *|
 [B,,B,]2 [B,,B,]>[B,,B,] [B,,B,]4 | [E,B,]2 [E,B,]>[E,G,] [C,G,]4 | %10
w: tered by Thee, shel-|tered by Thee, Here|
 [F,A,]2 [F,A,]>[F,A,] [G,B,]2 [E,B,]>[E,B,] | [F,B,]2 [F,A,]>[F,C] [B,,B,]4 |] %12
w: in the sha- dow from dan-|ger I’m free. *|
V:4
 x8 | x8 | x6 B,3/2 x/ | x8 | x8 | x8 | x8 | x8 || x8 | x8 | x8 | x8 |] %12
w: ||~||||||||||

